icons/aws-cloudformation.svg

<svg xmlns="http://www.w3.org/2000/svg" viewBox="0 0 256 311.641">
  <path fill="#b7ca9d" d="m16.491 215.53 2.176 2.47 109.915 31.157.498-19.313-76.98-19.318-3.767-1.359-31.842 6.363"/>
  <path fill="#b7ca9d" d="M239.505 215.53 127.25 253l-.334-23.156 76.979-19.318 3.355-3.776 32.255 8.78"/>
  <path fill="#3c4929" d="m126.916 83.165 76.979 17.941L237.75 99.5l1.755-3.393L132.25 57.5l-5.334 25.665"/>
  <path fill="#759c3e" d="m52.1 210.526-35.609 5.004-.991-3.697V100l.991-3.893L48.667 98.5l3.433 2.61v109.416"/>
  <path fill="#3c4929" d="M129.08 83.165 52.1 101.106l-35.609-4.999L17.833 94l110.749-31.52.498 20.685"/>
  <path fill="#4b612c" d="M127.846 0 0 64.531l.061 182.613 127.785 64.497 1.904-2.891v-305zM90.462 237.73l-73.971-22.2V96.107l73.971-22.192zM203.895 210.526l35.61 5.004L241.5 212V99.5l-1.995-3.393-35.61 5.003v109.416"/>
  <path fill="#759c3e" d="m127.846 311.641 128.093-64.493L256 64.536 127.846 0zm37.687-237.726 73.972 22.192V215.53l-73.972 22.2V73.915z"/>
</svg>

<?xml version="1.0" encoding="UTF-8" standalone="no"?>
<svg width="256px" height="312px" viewBox="0 0 256 312" version="1.1" xmlns="http://www.w3.org/2000/svg" xmlns:xlink="http://www.w3.org/1999/xlink" preserveAspectRatio="xMidYMid">
	<g>
		<path d="M16.491,215.53 L18.667,218 L128.582,249.157 L129.08,229.844 L52.1,210.526 L48.333,209.167 L16.491,215.53" fill="#B7CA9D"></path>
		<path d="M239.505,215.53 L127.25,253 L126.916,229.844 L203.895,210.526 L207.25,206.75 L239.505,215.53" fill="#B7CA9D"></path>
		<path d="M126.916,83.165 L203.895,101.106 L237.75,99.5 L239.505,96.107 L132.25,57.5 L126.916,83.165" fill="#3C4929"></path>
		<path d="M52.1,210.526 L16.491,215.53 L15.5,211.833 L15.5,100 L16.491,96.107 L48.667,98.5 L52.1,101.11 L52.1,210.526" fill="#759C3E"></path>
		<path d="M129.08,83.165 L52.1,101.106 L16.491,96.107 L17.833,94 L128.582,62.48 L129.08,83.165" fill="#3C4929"></path>
		<path d="M127.846,0 L0,64.531 L0.061,247.144 L127.846,311.641 L129.75,308.75 L129.75,3.75 L127.846,0 L127.846,0 Z M90.462,237.73 L16.491,215.53 L16.491,96.107 L90.462,73.915 L90.462,237.73 L90.462,237.73 Z" fill="#4B612C"></path>
		<path d="M203.895,210.526 L239.505,215.53 L241.5,212 L241.5,99.5 L239.505,96.107 L203.895,101.11 L203.895,210.526" fill="#4B612C"></path>
		<path d="M127.846,311.641 L255.939,247.148 L256,64.536 L127.846,0 L127.846,311.641 L127.846,311.641 Z M165.533,73.915 L239.505,96.107 L239.505,215.53 L165.533,237.73 L165.533,73.915 L165.533,73.915 Z" fill="#759C3E"></path>
	</g>
</svg>
